NotoEmoji/emoji_u1f4ce.svg

<svg enable-background="new 0 0 128 128" viewBox="0 0 128 128" xmlns="http://www.w3.org/2000/svg"><path d="m112.03 116.44c13.51-11.74 14.42-29.75 2.22-43.78l-42.09-48.42c-.74-.86-6.94 4.53-6.19 5.39l42.09 48.42c7.63 8.78 10.16 22.15-1.41 32.2-7.72 6.71-20 9.25-31.31-3.76l-54.17-62.31c-6.39-7.35-11.73-20.28-2.25-28.53 10.27-8.93 21.53 1.78 25.89 6.8l32.49 37.39c4.19 4.82 8.24 14.99 4.77 18.46s-10.56 6.59-21.16-4l-19.89-22.61c-.66-.75-6.99 4.48-6.16 5.42l19.89 22.61c6.2 7.03 18.4 17.24 30.47 6.75 9.17-7.97 8.51-20.24-1.72-32.01l-32.49-37.39c-12.28-14.11-26.64-17.03-37.48-7.61-11.21 9.74-11.13 25.65.2 38.68l55.41 63.74c12.39 14.26 29.63 16.09 42.89 4.56z" fill="#82aec0"/><g fill="#2f7889"><path d="m84.81 70.48c0-5.18-3.2-10.08-5.73-12.99l-32.5-37.38c-3.57-4.09-8.63-8.45-15.12-8.83-8.61-.5-12.98 4.58-12.03 3.86 10.53-7.95 21.02 2.29 25.38 7.31l32.49 37.39c5.21 6.58 6.99 13.7 5.32 17.76 0-.01 2.19-1.67 2.19-7.12z"/><path d="m111.76 104.23c7.2-9.42 4.75-20.84-1.94-28.53 0 0-42.24-48.46-42.24-48.55-.88.93-1.94 2.09-1.68 2.38l42.14 48.52c5.65 6.49 9.29 17.17 3.72 26.18z"/><path d="m13.49 47.86 55.65 64.02c13.7 15.21 30.14 15.58 43.4 4.05 2.58-2.24.14-.21-.67.38-12.89 9.37-29.3 6.64-40.96-6.78l-55.41-63.74c-9.33-10.73-11.02-23.42-5.05-33.01-7.88 9.41-6.91 23.64 3.04 35.08z"/><path d="m85.73 85.96c1.65-1.49 2.8-3.05 3.82-4.77-.8 1.03-1.5 2-2.56 2.93-12.07 10.5-24.27.28-30.47-6.75l-20.11-22.73s-2.15 1.9-1.5 2.54l22.28 25.13c6.63 6.63 17.54 13.6 28.54 3.65z"/></g><path d="m10.41 32.56c-1.94-3.23-2.01-7.75-1.44-10.66.92-4.64 2.92-8.61 6.59-11.57 4.63-3.72 11.7-5.7 18.11-4.08 0 0 2.44.57 2.06 2.2s-4.24 1-4.24 1c-3.75-.81-10.09.14-13.99 3.28-2.56 2.06-4.54 4.93-5.46 8.11-2.5 8.67.88 15.91-1.63 11.72z" fill="#b9e4ea"/><path d="m113.69 111.44c-2.15 2.12-4.55 3.59-5.91 2.76-.68-.41-.48-1.65.61-2.7 2.62-2.5 4.7-5.17 5.2-5.94 5.35-8.17 5.19-13.37 3.44-20.77-.47-2.01.48-2.19 1.21-1.27 1.08 1.36 1.7 4.52 1.93 5.95 2.18 13.88-5.5 21.01-6.48 21.97z" fill="#b9e4ea"/><path d="m85.09 82.39c-3.64 3.04-5.84.16-3.91-1.9 2.49-2.65 7.22-5.92 4.1-15.37-.52-1.57.17-3.14 1.61-.54 4.77 8.62 1.84 14.77-1.8 17.81z" fill="#b9e4ea"/></svg>

<?xml version="1.0" encoding="utf-8"?>
<!-- Generator: Adobe Illustrator 25.2.3, SVG Export Plug-In . SVG Version: 6.00 Build 0)  -->
<svg version="1.1" id="paperclip" xmlns="http://www.w3.org/2000/svg" xmlns:xlink="http://www.w3.org/1999/xlink" x="0px" y="0px"
	 viewBox="0 0 128 128" style="enable-background:new 0 0 128 128;" xml:space="preserve">
<g>
	<g>
		<g>
			<path style="fill:#82AEC0;" d="M112.03,116.44c13.51-11.74,14.42-29.75,2.22-43.78L72.16,24.24c-0.74-0.86-6.94,4.53-6.19,5.39
				l42.09,48.42c7.63,8.78,10.16,22.15-1.41,32.2c-7.72,6.71-20,9.25-31.31-3.76L21.17,44.18c-6.39-7.35-11.73-20.28-2.25-28.53
				c10.27-8.93,21.53,1.78,25.89,6.8L77.3,59.84c4.19,4.82,8.24,14.99,4.77,18.46s-10.56,6.59-21.16-4L41.02,51.69
				c-0.66-0.75-6.99,4.48-6.16,5.42l19.89,22.61c6.2,7.03,18.4,17.24,30.47,6.75c9.17-7.97,8.51-20.24-1.72-32.01L51.01,17.07
				C38.73,2.96,24.37,0.04,13.53,9.46c-11.21,9.74-11.13,25.65,0.2,38.68l55.41,63.74C81.53,126.14,98.77,127.97,112.03,116.44z"/>
		</g>
	</g>
	<g>
		<path style="fill:#2F7889;" d="M84.81,70.48c0-5.18-3.2-10.08-5.73-12.99L46.58,20.11c-3.57-4.09-8.63-8.45-15.12-8.83
			c-8.61-0.5-12.98,4.58-12.03,3.86c10.53-7.95,21.02,2.29,25.38,7.31L77.3,59.84c5.21,6.58,6.99,13.7,5.32,17.76
			C82.62,77.59,84.81,75.93,84.81,70.48z"/>
		<path style="fill:#2F7889;" d="M111.76,104.23c7.2-9.42,4.75-20.84-1.94-28.53c0,0-42.24-48.46-42.24-48.55
			c-0.88,0.93-1.94,2.09-1.68,2.38l42.14,48.52C113.69,84.54,117.33,95.22,111.76,104.23z"/>
		<path style="fill:#2F7889;" d="M13.49,47.86l55.65,64.02c13.7,15.21,30.14,15.58,43.4,4.05c2.58-2.24,0.14-0.21-0.67,0.38
			c-12.89,9.37-29.3,6.64-40.96-6.78L15.5,45.79C6.17,35.06,4.48,22.37,10.45,12.78C2.57,22.19,3.54,36.42,13.49,47.86z"/>
		<path style="fill:#2F7889;" d="M85.73,85.96c1.65-1.49,2.8-3.05,3.82-4.77c-0.8,1.03-1.5,2-2.56,2.93
			c-12.07,10.5-24.27,0.28-30.47-6.75L36.41,54.64c0,0-2.15,1.9-1.5,2.54l22.28,25.13C63.82,88.94,74.73,95.91,85.73,85.96z"/>
	</g>
	<g>
		<path style="fill:#B9E4EA;" d="M10.41,32.56C8.47,29.33,8.4,24.81,8.97,21.9c0.92-4.64,2.92-8.61,6.59-11.57
			c4.63-3.72,11.7-5.7,18.11-4.08c0,0,2.44,0.57,2.06,2.2s-4.24,1-4.24,1c-3.75-0.81-10.09,0.14-13.99,3.28
			c-2.56,2.06-4.54,4.93-5.46,8.11C9.54,29.51,12.92,36.75,10.41,32.56z"/>
	</g>
	<g>
		<path style="fill:#B9E4EA;" d="M113.69,111.44c-2.15,2.12-4.55,3.59-5.91,2.76c-0.68-0.41-0.48-1.65,0.61-2.7
			c2.62-2.5,4.7-5.17,5.2-5.94c5.35-8.17,5.19-13.37,3.44-20.77c-0.47-2.01,0.48-2.19,1.21-1.27c1.08,1.36,1.7,4.52,1.93,5.95
			C122.35,103.35,114.67,110.48,113.69,111.44z"/>
	</g>
	<g>
		<path style="fill:#B9E4EA;" d="M85.09,82.39c-3.64,3.04-5.84,0.16-3.91-1.9c2.49-2.65,7.22-5.92,4.1-15.37
			c-0.52-1.57,0.17-3.14,1.61-0.54C91.66,73.2,88.73,79.35,85.09,82.39z"/>
	</g>
</g>
</svg>
